X:10
T:Broad Sentry
Z:robin.beech@mcgill.ca
B:John of the Green, The Cheshire Way
M:3/2
L:1/4
K:D
dfd | af2 bag | fd2 ab/a/g/f/ | edc aB^g | aA2 :|
AdA | BG2 e/f/ g/f/e/d/ | cA2 a b/a/g/f/ | edc aB^g | aA2 AdA |
BG2 e/f/ g/f/e/d/ | cA2 a b/a/g/f/ | edc B/c/ dA | FD2 |]
